images/icon-top-row.svg

<svg width="33" height="15" viewBox="0 0 33 15" fill="none" xmlns="http://www.w3.org/2000/svg">
<path fill-rule="evenodd" clip-rule="evenodd" d="M0.571106 3L4.97064 7.39953L0.571106 11.7991L3.39953 14.6275L10.6275 7.39953L3.39953 0.17157L0.571106 3ZM11.5711 3L15.9706 7.39953L11.5711 11.7991L14.3995 14.6275L21.6275 7.39953L14.3995 0.17157L11.5711 3ZM26.9706 7.39953L22.5711 3L25.3995 0.17157L32.6275 7.39953L25.3995 14.6275L22.5711 11.7991L26.9706 7.39953Z" fill="white"/>
</svg>

<svg width="33" height="15" fill="none" xmlns="http://www.w3.org/2000/svg"><path fill-rule="evenodd" clip-rule="evenodd" d="M.571 3l4.4 4.4-4.4 4.4L3.4 14.626 10.627 7.4 3.4.172.57 3zm11 0l4.4 4.4-4.4 4.4 2.829 2.827L21.627 7.4 14.399.172 11.572 3zm15.4 4.4L22.57 3 25.4.172 32.627 7.4 25.4 14.627 22.572 11.8l4.4-4.4z" fill="#fff"/></svg>
